X: 1
T: the Dunmore Lasses
T: the High Road To Sligo
T: Morrison's Reel
T: the Road To Knock
M: 4/4
L: 1/8
R: reel
K: Emin
|: "Em"E3F G3A | "Em"Bee2 Bee2 | "Em"E3F G2BG | "D"A2BA GEFD |
|  "Em"E3F G3A | "Em"Beed e3f | "Em"(3gfe fd eBdB | "D"AcBA [1 GEFD :|[2 "Em"GEE2 |]
|: "Em"g2eg "D"fedc | "Em"Bee2 Bee2 | "Em"g2eg "D"fedB | "D"AcBA "Em"GEE2 |
|  "Em"g2eg "D"fedc | "Em"Beed e3f | "Em"(3gfe fd eBdB | "D"AcBA [1 "Em"GEE2 :|[2 "D"GEFD |]
